X: 513
T: Aaron's Key
R: jig
M: 6/8
K: Bminor
|:F2B Bcd|cAA ABc|dBB Bcd|edc BAG|
FBB Bcd|cAA ABc|dB/c/d ede|fdB B2A|
F2B Bcd|cAA ABc|dBB Bcd|efd efg|
f3 fed|cAA ABc|dB/c/d ede|fdB B2c||
|:d2A def|ecA a2g|f3 fed|cde ABc|
BF/G/B cF/G/c|df/g/d ede|fed cBA|1 B3 B2c:|2 B3 B2A||

